src/pos-icons/human-female-female.svg

<svg height="24" viewBox="0 0 24 24" width="24" xmlns="http://www.w3.org/2000/svg"><path d="m7.5 2a2 2 0 0 1 2 2 2 2 0 0 1 -2 2 2 2 0 0 1 -2-2 2 2 0 0 1 2-2m-1.5 20v-6h-3l2.6-7.6c.3-.8 1-1.4 1.9-1.4s1.7.6 1.9 1.4l2.6 7.6 2.6-7.6c.3-.8 1-1.4 1.9-1.4s1.7.6 1.9 1.4l2.6 7.6h-3v6h-3v-6h-3-3v6zm10.5-20a2 2 0 0 1 2 2 2 2 0 0 1 -2 2 2 2 0 0 1 -2-2 2 2 0 0 1 2-2z"/></svg>

<?xml version="1.0" encoding="UTF-8"?><!DOCTYPE svg PUBLIC "-//W3C//DTD SVG 1.1//EN" "http://www.w3.org/Graphics/SVG/1.1/DTD/svg11.dtd"><svg xmlns="http://www.w3.org/2000/svg" xmlns:xlink="http://www.w3.org/1999/xlink" version="1.1" id="mdi-human-female-female" width="24" height="24" viewBox="0 0 24 24"><path d="M7.5,2A2,2 0 0,1 9.5,4A2,2 0 0,1 7.5,6A2,2 0 0,1 5.5,4A2,2 0 0,1 7.5,2M6,22V16H3L5.6,8.4C5.9,7.6 6.6,7 7.5,7C8.4,7 9.2,7.6 9.4,8.4L12,16L14.6,8.4C14.9,7.6 15.6,7 16.5,7C17.4,7 18.2,7.6 18.4,8.4L21,16H18V22H15V16H12L9,16V22H6M16.5,2A2,2 0 0,1 18.5,4A2,2 0 0,1 16.5,6A2,2 0 0,1 14.5,4A2,2 0 0,1 16.5,2Z" /></svg>
